src/Assets/previousArrow.svg

<svg height="61" viewBox="0 0 61 61" width="61" xmlns="http://www.w3.org/2000/svg"><g fill="none" fill-rule="evenodd" transform="translate(-1 -1)"><path d="m31.5 1.000188c16.844688 0 30.500001 13.655124 30.500001 30.500064 0 16.844436-13.655313 30.49956-30.500001 30.49956-16.844751 0-30.500064-13.655124-30.500064-30.49956 0-16.84494 13.655313-30.500064 30.500064-30.500064z" fill="#880d1e"/><path d="m18.367873 29.592305 8.034704-8.216451c.490172-.501492 1.285229-.501492 1.775494 0 .490265.501515.490265 1.314128 0 1.81562l-5.891581 6.024827h21.458107c.693315 0 1.255438.574586 1.255438 1.283814 0 .708745-.562123 1.283814-1.255438 1.283814h-21.458107l5.891333 6.024321c.490358.501515.490358 1.314588 0 1.81562-.245148.250999-.566401.376004-.887654.376004-.321377 0-.64263-.125005-.887747-.376004l-8.034549-8.215945c-.490327-.501515-.490327-1.314611 0-1.81562z" fill="#fff"/></g></svg>

<?xml version="1.0" encoding="UTF-8"?>
<svg width="61px" height="61px" viewBox="0 0 61 61" version="1.1" xmlns="http://www.w3.org/2000/svg" xmlns:xlink="http://www.w3.org/1999/xlink">
    <!-- Generator: Sketch 53.2 (72643) - https://sketchapp.com -->
    <title>previousArrow</title>
    <desc>Created with Sketch.</desc>
    <g id="HomePage" stroke="none" stroke-width="1" fill="none" fill-rule="evenodd">
        <g id="HomePage-Desktop-HD" transform="translate(-120.000000, -364.000000)">
            <g id="Section-1-:-Carousel" transform="translate(-1.000000, 124.000000)">
                <g id="previousArrow" transform="translate(120.000000, 239.000000)">
                    <path d="M31.5,1.000188 C48.344688,1.000188 62.000001,14.655312 62.000001,31.500252 C62.000001,48.344688 48.344688,61.999812 31.5,61.999812 C14.655249,61.999812 0.999936,48.344688 0.999936,31.500252 C0.999936,14.655312 14.655249,1.000188 31.5,1.000188 Z" id="button" fill="#880D1E"></path>
                    <path d="M18.367873,29.592305 L26.402577,21.375854 C26.892749,20.874362 27.687806,20.874362 28.178071,21.375854 C28.668336,21.877369 28.668336,22.689982 28.178071,23.191474 L22.28649,29.216301 L43.744597,29.216301 C44.437912,29.216301 45.000035,29.790887 45.000035,30.500115 C45.000035,31.20886 44.437912,31.783929 43.744597,31.783929 L22.28649,31.783929 L28.177823,37.80825 C28.668181,38.309765 28.668181,39.122838 28.177823,39.62387 C27.932675,39.874869 27.611422,39.999874 27.290169,39.999874 C26.968792,39.999874 26.647539,39.874869 26.402422,39.62387 L18.367873,31.407925 C17.877546,30.90641 17.877546,30.093314 18.367873,29.592305 Z" id="arrow" fill="#FFFFFF"></path>
                </g>
            </g>
        </g>
    </g>
</svg>
